src/icons/sponsors/woollymammoth.svg

<svg width="450" height="74" viewBox="0 0 450 74" fill="none" xmlns="http://www.w3.org/2000/svg">
<path d="M111.938 58.8397H104.368V19.7465H111.133L111.857 24.863C112.877 22.9443 114.407 21.4253 116.448 20.3061C118.541 19.1869 120.931 18.6272 123.615 18.6272C129.735 18.6272 133.896 21.2654 136.097 26.5418C137.01 24.0902 138.594 22.1715 140.849 20.7858C143.103 19.3467 145.761 18.6272 148.821 18.6272C153.331 18.6272 156.874 19.933 159.451 22.5446C162.028 25.1561 163.317 28.727 163.317 33.2572V58.8397H155.908V35.096C155.908 32.058 155.103 29.6863 153.492 27.9808C151.935 26.2753 149.814 25.4226 147.13 25.4226C144.285 25.4226 141.976 26.3553 140.204 28.2207C138.486 30.0861 137.627 32.5644 137.627 35.6556V58.8397H130.138V35.016C130.138 31.9781 129.359 29.633 127.802 27.9808C126.246 26.3286 124.125 25.5025 121.441 25.5025C118.541 25.5025 116.233 26.4352 114.515 28.3006C112.797 30.1127 111.938 32.5644 111.938 35.6556V58.8397Z" fill="white"/>
<path d="M182.91 59.799C178.723 59.799 175.421 58.7331 173.005 56.6012C170.643 54.4161 169.462 51.538 169.462 47.9672C169.462 44.3963 170.723 41.5449 173.247 39.413C175.824 37.2278 179.448 35.9487 184.118 35.5756L196.52 34.6163V33.4971C196.52 27.5811 193.433 24.6231 187.259 24.6231C184.091 24.6231 181.622 25.2893 179.85 26.6218C178.132 27.9542 177.273 29.7929 177.273 32.138H170.67C170.67 28.0874 172.2 24.8363 175.26 22.3847C178.374 19.8797 182.481 18.6272 187.581 18.6272C192.628 18.6272 196.601 19.9597 199.5 22.6245C202.453 25.2893 203.929 29.18 203.929 34.2965V58.8397H197.487L196.681 52.524C195.661 54.7625 193.889 56.5479 191.366 57.8804C188.897 59.1595 186.078 59.799 182.91 59.799ZM185.085 53.963C188.682 53.963 191.5 52.8971 193.54 50.7652C195.581 48.5801 196.601 45.6487 196.601 41.9713V39.8927L186.534 40.6921C180.253 41.2784 177.112 43.6235 177.112 47.7273C177.112 49.7526 177.81 51.2982 179.206 52.3641C180.602 53.4301 182.561 53.963 185.085 53.963Z" fill="white"/>
<path d="M219.567 58.8397H211.997V19.7465H218.761L219.486 24.863C220.506 22.9443 222.036 21.4253 224.076 20.3061C226.17 19.1869 228.559 18.6272 231.244 18.6272C237.364 18.6272 241.525 21.2654 243.726 26.5418C244.639 24.0902 246.222 22.1715 248.477 20.7858C250.732 19.3467 253.39 18.6272 256.45 18.6272C260.96 18.6272 264.503 19.933 267.08 22.5446C269.657 25.1561 270.945 28.727 270.945 33.2572V58.8397H263.537V35.096C263.537 32.058 262.731 29.6863 261.121 27.9808C259.564 26.2753 257.443 25.4226 254.759 25.4226C251.913 25.4226 249.605 26.3553 247.833 28.2207C246.115 30.0861 245.256 32.5644 245.256 35.6556V58.8397H237.767V35.016C237.767 31.9781 236.988 29.633 235.431 27.9808C233.874 26.3286 231.754 25.5025 229.069 25.5025C226.17 25.5025 223.862 26.4352 222.144 28.3006C220.426 30.1127 219.567 32.5644 219.567 35.6556V58.8397Z" fill="white"/>
<path d="M286.593 58.8397H279.023V19.7465H285.788L286.513 24.863C287.533 22.9443 289.063 21.4253 291.103 20.3061C293.197 19.1869 295.586 18.6272 298.27 18.6272C304.39 18.6272 308.551 21.2654 310.752 26.5418C311.665 24.0902 313.249 22.1715 315.504 20.7858C317.759 19.3467 320.416 18.6272 323.476 18.6272C327.986 18.6272 331.529 19.933 334.106 22.5446C336.683 25.1561 337.972 28.727 337.972 33.2572V58.8397H330.563V35.096C330.563 32.058 329.758 29.6863 328.147 27.9808C326.59 26.2753 324.47 25.4226 321.785 25.4226C318.94 25.4226 316.631 26.3553 314.859 28.2207C313.141 30.0861 312.282 32.5644 312.282 35.6556V58.8397H304.793V35.016C304.793 31.9781 304.015 29.633 302.458 27.9808C300.901 26.3286 298.78 25.5025 296.096 25.5025C293.197 25.5025 290.888 26.4352 289.17 28.3006C287.452 30.1127 286.593 32.5644 286.593 35.6556V58.8397Z" fill="white"/>
<path d="M349.271 54.043C345.405 50.2056 343.473 45.2757 343.473 39.2531C343.473 33.2306 345.405 28.3006 349.271 24.4632C353.136 20.6259 358.049 18.7072 364.008 18.7072C369.914 18.7072 374.799 20.6259 378.665 24.4632C382.53 28.3006 384.463 33.2306 384.463 39.2531C384.463 45.2757 382.53 50.2056 378.665 54.043C374.799 57.8804 369.914 59.799 364.008 59.799C358.049 59.799 353.136 57.8804 349.271 54.043ZM354.666 29.26C352.304 31.8182 351.123 35.1493 351.123 39.2531C351.123 43.357 352.304 46.688 354.666 49.2463C357.082 51.8045 360.196 53.0836 364.008 53.0836C367.82 53.0836 370.907 51.8045 373.269 49.2463C375.685 46.6347 376.893 43.3037 376.893 39.2531C376.893 35.2026 375.685 31.8982 373.269 29.3399C370.907 26.7284 367.82 25.4226 364.008 25.4226C360.196 25.4226 357.082 26.7017 354.666 29.26Z" fill="white"/>
<path d="M401.147 58.8397H393.577V26.0622H385.846V19.7465H393.577V7.51486H401.147V19.7465H408.878V26.0622H401.147V58.8397Z" fill="white"/>
<path d="M420.825 58.7598H413.255V0H420.825V25.7424C422.114 23.5572 423.912 21.8251 426.221 20.5459C428.529 19.2668 431.187 18.6272 434.193 18.6272C439.133 18.6272 442.837 20.0663 445.307 22.9443C447.83 25.8223 449.092 29.8196 449.092 34.9361V58.8397H441.522V36.6149C441.522 29.2067 438.381 25.5025 432.1 25.5025C428.556 25.5025 425.791 26.6484 423.805 28.9402C421.819 31.1786 420.825 34.03 420.825 37.4943V58.7598Z" fill="white"/>
<path fill-rule="evenodd" clip-rule="evenodd" d="M15.3489 1.59204C6.87194 1.59204 0 8.46398 0 16.9409V57.8714C0 66.3483 6.87194 73.2203 15.3489 73.2203H56.2793C64.7563 73.2203 71.6282 66.3483 71.6282 57.8714V16.9409C71.6282 8.46398 64.7563 1.59204 56.2793 1.59204H15.3489ZM30.1219 22.0572C19.1373 22.0572 10.2326 30.962 10.2326 41.9465V52.7551H20.4652V32.2898H30.6978V52.7551H40.9304V32.2898H43.4886C47.727 32.2898 51.163 35.7258 51.163 39.9643V52.7551H61.3956V41.9465C61.3956 30.962 52.4909 22.0572 41.5063 22.0572H40.9304V32.2898H30.6978V22.0572H30.1219Z" fill="white"/>
</svg>

<svg xmlns="http://www.w3.org/2000/svg" width="450" height="74" fill="#fff">
  <path d="M112 58.8h-7.6v-39h6.7l.8 5c1-1.9 2.5-3.4 4.5-4.5a15 15 0 0 1 7.2-1.7c6.1 0 10.3 2.7 12.5 8 1-2.5 2.5-4.4 4.7-5.8 2.3-1.5 5-2.2 8-2.2 4.5 0 8 1.3 10.7 4 2.5 2.6 3.8 6.1 3.8 10.7v25.5H156V35.1c0-3-.8-5.4-2.4-7.1a8.2 8.2 0 0 0-6.4-2.6c-2.8 0-5.1 1-6.9 2.8a10.5 10.5 0 0 0-2.6 7.5v23.1h-7.5V35c0-3-.7-5.4-2.3-7a8.3 8.3 0 0 0-6.4-2.5 9 9 0 0 0-6.9 2.8 10.3 10.3 0 0 0-2.6 7.4v23.1Zm71 1c-4.3 0-7.6-1-10-3.2a11 11 0 0 1-3.5-8.6c0-3.6 1.2-6.5 3.7-8.6 2.6-2.2 6.2-3.5 11-3.8l12.3-1v-1.1c0-6-3-8.9-9.2-8.9-3.2 0-5.7.7-7.5 2a6.6 6.6 0 0 0-2.5 5.5h-6.6c0-4 1.5-7.3 4.6-9.7a19 19 0 0 1 12.3-3.8c5 0 9 1.4 11.9 4 3 2.7 4.4 6.6 4.4 11.7v24.5h-6.4l-.8-6.3c-1 2.3-2.8 4-5.3 5.4a18 18 0 0 1-8.5 1.9Zm2-5.8c3.7 0 6.5-1.1 8.5-3.2 2-2.2 3.1-5.2 3.1-8.8v-2.1l-10 .8c-6.3.6-9.5 3-9.5 7 0 2 .7 3.6 2.1 4.7a10 10 0 0 0 5.9 1.6Zm34.6 4.8H212v-39h6.8l.7 5c1-1.9 2.5-3.4 4.6-4.5a15 15 0 0 1 7.1-1.7c6.2 0 10.3 2.7 12.5 8 1-2.5 2.5-4.4 4.8-5.8a14 14 0 0 1 8-2.2c4.5 0 8 1.3 10.6 4 2.6 2.6 3.8 6.1 3.8 10.7v25.5h-7.4V35.1c0-3-.8-5.4-2.4-7.1a8.2 8.2 0 0 0-6.3-2.6c-2.9 0-5.2 1-7 2.8a10.5 10.5 0 0 0-2.5 7.5v23.1h-7.5V35c0-3-.8-5.4-2.4-7a8.3 8.3 0 0 0-6.3-2.5 9 9 0 0 0-7 2.8 10.3 10.3 0 0 0-2.5 7.4v23.1Zm67 0H279v-39h6.8l.7 5a11 11 0 0 1 4.6-4.5 15 15 0 0 1 7.2-1.7c6 0 10.3 2.7 12.5 8 .9-2.5 2.4-4.4 4.7-5.8 2.3-1.5 5-2.2 8-2.2 4.5 0 8 1.3 10.6 4 2.6 2.6 3.9 6.1 3.9 10.7v25.5h-7.4V35.1c0-3-.8-5.4-2.5-7.1a8.2 8.2 0 0 0-6.3-2.6c-2.9 0-5.2 1-7 2.8a10.5 10.5 0 0 0-2.5 7.5v23.1h-7.5V35c0-3-.8-5.4-2.3-7a8.3 8.3 0 0 0-6.4-2.5 9 9 0 0 0-7 2.8 10.3 10.3 0 0 0-2.5 7.4v23.1Zm62.7-4.8a20 20 0 0 1-5.8-14.7c0-6 1.9-11 5.8-14.8a20 20 0 0 1 14.7-5.8 20 20 0 0 1 20.5 20.5c0 6-2 11-5.8 14.8a20 20 0 0 1-14.7 5.8c-6 0-10.9-2-14.7-5.8Zm5.4-24.7a14.1 14.1 0 0 0-3.6 10c0 4 1.2 7.4 3.6 10 2.4 2.5 5.5 3.8 9.3 3.8a12 12 0 0 0 9.3-3.9c2.4-2.6 3.6-5.9 3.6-10 0-4-1.2-7.3-3.6-9.9a12 12 0 0 0-9.3-3.9 12 12 0 0 0-9.3 3.9Zm46.4 29.5h-7.5V26.1h-7.8v-6.4h7.8V7.5h7.5v12.2h7.8v6.4H401v32.7Zm19.7 0h-7.5V0h7.5v25.7a15 15 0 0 1 5.4-5.2c2.3-1.2 5-1.9 8-1.9 5 0 8.6 1.5 11.1 4.3 2.5 3 3.8 7 3.8 12v24h-7.6V36.5c0-7.4-3.1-11.1-9.4-11.1-3.5 0-6.3 1.1-8.3 3.4-2 2.3-3 5.1-3 8.6v21.3Z"/>
  <path fill-rule="evenodd" d="M15.3 1.6C7 1.6 0 8.5 0 16.9v41c0 8.4 6.9 15.3 15.3 15.3h41c8.5 0 15.3-6.9 15.3-15.3v-41c0-8.4-6.8-15.3-15.3-15.3h-41ZM30.1 22c-11 0-19.9 8.9-19.9 19.8v10.9h10.3V32.3h10.2v20.5h10.2V32.3h2.6c4.2 0 7.7 3.4 7.7 7.7v12.8h10.2V41.9c0-11-9-19.8-19.9-19.8H41v10.2H30.7V22h-.6Z" />
</svg>
